logos/instagram.svg

<?xml version="1.0" encoding="UTF-8" standalone="no"?>
<svg width="512px" height="146px" viewBox="0 0 512 146" version="1.1" xmlns="http://www.w3.org/2000/svg" xmlns:xlink="http://www.w3.org/1999/xlink" preserveAspectRatio="xMidYMid">
	<g fill="#343433">
		<path d="M27.1265503,0.902013423 C16.6803758,5.27806711 5.19645638,17.6253423 1.56950336,33.1348188 C-3.02389262,52.7806711 16.0910604,61.0895034 17.6588456,58.3688591 C19.5041074,55.168 14.2337718,54.0855839 13.1487785,43.8919732 C11.7467919,30.7260134 17.8675973,16.014604 25.571651,9.55962416 C27.0028456,8.36037584 26.9349799,10.0295302 26.9349799,13.1169933 C26.9349799,18.6381745 26.6300134,68.2016644 26.6300134,78.5456107 C26.6300134,92.5422819 26.0518658,96.9621477 25.0132617,101.329611 C23.9617718,105.75549 22.2702819,108.745879 23.5511409,109.897879 C24.9831946,111.18647 31.0971275,108.121342 34.6364564,103.181745 C38.8802148,97.2576644 40.3655302,90.1429262 40.632698,82.4165369 C40.9548456,73.102604 40.9411007,58.3233289 40.9548456,49.8933691 C40.9668725,42.1618255 41.0845638,19.5221477 40.8191141,5.91205369 C40.7538255,2.57374497 31.4957315,-0.928644295 27.1265503,0.902013423"></path>
		<path d="M398.069691,66.4053691 C397.73294,73.6816107 396.122201,79.3694497 394.123168,83.3812617 C390.253101,91.1480268 382.222604,93.5594094 378.812993,82.3950604 C376.954846,76.3094765 376.868081,66.1450738 378.203919,57.6524027 C379.563812,49.0008054 383.360859,42.4667919 389.648322,43.0561074 C395.849879,43.6385503 398.752644,51.6295302 398.069691,66.4053691 L398.069691,66.4053691 Z M293.520322,111.550711 C293.436134,123.641128 291.533315,134.241933 287.452779,137.320805 C281.665289,141.68655 273.886497,138.411812 275.497235,129.589262 C276.922416,121.782121 283.662604,113.809181 293.536644,104.067436 C293.536644,104.067436 293.557262,106.288966 293.520322,111.550711 L293.520322,111.550711 Z M291.939651,66.3340671 C291.585718,72.9617181 289.867597,79.6194362 287.993128,83.3812617 C284.123919,91.1480268 276.035007,93.5757315 272.682953,82.3950604 C270.39098,74.7554362 270.939919,64.8685101 272.073879,58.638604 C273.54545,50.5557047 277.112268,43.0569664 283.518282,43.0569664 C289.74647,43.0569664 292.817611,49.8899329 291.939651,66.3340671 L291.939651,66.3340671 Z M231.375034,66.233557 C230.995329,73.2520805 229.625987,79.1194631 227.42851,83.3812617 C223.452779,91.0947651 215.587221,93.5405101 212.118336,82.3950604 C209.617611,74.3576913 210.46894,63.3995168 211.509262,57.4797315 C213.052993,48.6949799 216.918765,42.4667919 222.953664,43.0569664 C229.152644,43.662604 232.166228,51.6295302 231.375034,66.233557 L231.375034,66.233557 Z M508.928,74.4315705 C507.412617,74.4315705 506.721074,75.9942013 506.14894,78.6229262 C504.16451,87.765906 502.078711,89.8293691 499.388993,89.8293691 C496.384,89.8293691 493.683973,85.3029799 492.989852,76.2407517 C492.444349,69.1148456 492.531973,55.9969933 493.22953,42.9478658 C493.372134,40.2667383 492.632483,37.6139597 485.441289,35.001557 C482.346953,33.877906 477.848913,32.2233557 475.609342,37.6294228 C469.281503,52.9026577 466.805691,65.0282953 466.223248,69.9532886 C466.193181,70.2084295 465.880483,70.2608322 465.825503,69.6646443 C465.454389,65.7198389 464.624537,58.5501208 464.52145,43.4882148 C464.501691,40.5493691 463.878872,38.0477852 460.63506,35.9997852 C458.530362,34.6708188 452.138953,32.3204295 449.83753,35.1166711 C447.843651,37.4034899 445.534497,43.5577987 443.135141,50.8529396 C441.185074,56.7821745 439.826899,60.7931275 439.826899,60.7931275 C439.826899,60.7931275 439.852671,44.7948456 439.875866,38.726443 C439.886174,36.437047 438.315812,35.6742013 437.84247,35.5358926 C435.711141,34.9182282 431.512054,33.8847785 429.729503,33.8847785 C427.530309,33.8847785 426.991678,35.1132349 426.991678,36.9043758 C426.991678,37.1397584 426.644617,57.9676779 426.644617,72.5321879 C426.644617,73.1653154 426.645477,73.8551409 426.648054,74.5887785 C425.431624,81.2825772 421.486819,90.3697181 417.196671,90.3697181 C412.901369,90.3697181 410.874846,86.570953 410.874846,69.2076242 C410.874846,59.079302 411.178953,54.6740403 411.32843,47.3479732 C411.415195,43.1282685 411.582711,39.8878926 411.573262,39.1525369 C411.541477,36.8975034 407.642201,35.7609664 405.827866,35.3408859 C404.00494,34.9182282 402.420832,34.7532886 401.183785,34.8237315 C399.43302,34.9233826 398.194255,36.0710872 398.194255,37.6508993 C398.194255,38.4987919 398.203705,40.1086711 398.203705,40.1086711 C395.948671,36.565047 392.321718,34.0986846 389.908617,33.3839463 C383.408966,31.4536376 376.626685,33.1648859 371.51098,40.3225772 C367.445047,46.0104161 364.994148,52.4525101 364.029423,61.7080268 C363.324134,68.4748456 363.554362,75.3361611 364.807732,81.1391141 C363.293208,87.6868725 360.481503,90.3697181 357.402631,90.3697181 C352.93294,90.3697181 349.692564,83.0745772 350.068832,70.456698 C350.317101,62.1581745 351.977664,56.333745 353.792859,47.9080805 C354.566872,44.316349 353.93804,42.4358658 352.360805,40.633557 C350.914148,38.9807248 347.831839,38.1362685 343.400805,39.1748725 C340.244617,39.9153826 335.731973,40.7117315 331.603329,41.3233826 C331.603329,41.3233826 331.852456,40.3294497 332.056913,38.5769664 C333.130738,29.3867383 323.144161,30.1324027 319.957906,33.0678121 C318.055946,34.8202953 316.761342,36.8871946 316.26996,40.6034899 C315.490792,46.5009396 320.300671,49.2825772 320.300671,49.2825772 C318.722577,56.5072752 314.854228,65.9431946 310.860456,72.7658523 C308.721396,76.4211544 307.084886,79.1297718 304.972456,82.0093423 C304.964725,80.9372349 304.958711,79.8642685 304.955275,78.7973154 C304.907168,63.6099866 305.109047,51.6578792 305.198389,47.3488322 C305.285154,43.1291275 305.454389,39.9746577 305.44494,39.239302 C305.420886,37.5907651 304.457879,36.9670872 302.45455,36.1784698 C300.683168,35.4809128 298.588779,34.9981208 296.416215,34.829745 C293.674094,34.616698 292.022121,36.0702282 292.065074,37.7900671 C292.073664,38.1147919 292.073664,40.1086711 292.073664,40.1086711 C289.818631,36.565047 286.191678,34.0986846 283.778577,33.3839463 C277.278926,31.4544966 270.496644,33.1648859 265.38094,40.3225772 C261.315866,46.0104161 258.653638,53.9919463 257.899383,61.6375839 C257.196671,68.7634899 257.326389,74.8181477 258.284242,79.9201074 C257.250792,85.0280805 254.279302,90.3697181 250.919517,90.3697181 C246.624215,90.3697181 244.180188,86.570953 244.180188,69.2076242 C244.180188,59.079302 244.484295,54.6740403 244.633772,47.3488322 C244.720537,43.1291275 244.888054,39.8878926 244.878604,39.153396 C244.846819,36.8983624 240.947544,35.7618255 239.133208,35.3408859 C237.234685,34.901906 235.595597,34.7404027 234.337074,34.8340403 C232.67651,34.9568859 231.509047,36.4439195 231.509047,37.5529664 L231.509047,40.1086711 C229.254013,36.565047 225.62706,34.0986846 223.21396,33.3839463 C216.714309,31.4544966 209.969826,33.1923758 204.816322,40.3225772 C201.455678,44.9718121 198.735034,50.1261745 197.334765,61.5362148 C196.930148,64.8332886 196.751463,67.9216107 196.774658,70.8071946 C195.434523,79.0034899 189.515597,88.4488591 184.673933,88.4488591 C181.840752,88.4488591 179.142443,82.9534497 179.142443,71.2418792 C179.142443,55.6413423 180.108027,33.4303356 180.271248,31.289557 C180.271248,31.289557 186.388617,31.1856107 187.573262,31.1718658 C190.624644,31.1383624 193.388242,31.2105235 197.452456,31.0026309 C199.491007,30.8986846 201.454819,23.5829262 199.35098,22.6774765 C198.397423,22.2677047 191.658094,21.9086174 188.986416,21.8519195 C186.739973,21.8012349 180.486013,21.3382013 180.486013,21.3382013 C180.486013,21.3382013 181.04698,6.59500671 181.177557,5.0375302 C181.288376,3.73948993 179.608913,3.07114094 178.645906,2.66566443 C176.304107,1.67516779 174.208859,1.20096644 171.725315,0.688966443 C168.294228,-0.0188993289 166.737611,0.673503356 166.433503,3.56939597 C165.975624,7.96434899 165.738523,20.8373691 165.738523,20.8373691 C163.220617,20.8373691 154.619705,20.3451275 152.10094,20.3451275 C149.760859,20.3451275 147.235221,30.4090201 150.470443,30.5327248 C154.192752,30.677047 160.679517,30.8024698 164.979973,30.9313289 C164.979973,30.9313289 164.788403,53.5091544 164.788403,60.4804295 C164.788403,61.2217987 164.791839,61.9356779 164.796134,62.6289396 C162.429423,74.9641879 154.093101,81.6279195 154.093101,81.6279195 C155.883383,73.4668456 152.226362,67.3383087 145.639087,62.150443 C143.212242,60.2390336 138.421262,56.6198121 133.060725,52.6535302 C133.060725,52.6535302 136.165369,49.5944161 138.918658,43.4375302 C140.869584,39.0760805 140.953772,34.0866577 136.165369,32.9862013 C128.253423,31.1667114 121.729718,36.977396 119.783946,43.1806711 C118.276295,47.9871141 119.080376,51.5522148 122.033826,55.2564832 C122.24945,55.5270872 122.483114,55.8037047 122.72451,56.0820403 C120.938523,59.5242953 118.485047,64.1589262 116.40698,67.7532349 C110.639248,77.7320805 106.282094,85.6251275 102.989315,85.6251275 C100.357154,85.6251275 100.392376,77.610953 100.392376,70.1079195 C100.392376,63.6400537 100.870013,53.9154899 101.251436,43.847302 C101.377718,40.5175839 99.7128591,38.6207785 96.9217718,36.9026577 C95.2259866,35.8588993 91.6067651,33.806604 89.5106577,33.806604 C86.3733691,33.806604 77.3214497,34.233557 68.7686443,58.9736376 C67.6905235,62.0920268 65.5729396,67.7738523 65.5729396,67.7738523 L65.7559195,38.0228725 C65.7559195,37.3253154 65.3839463,36.650953 64.5334765,36.1896376 C63.0919732,35.4070336 59.2425235,33.806604 55.8200268,33.806604 C54.1895302,33.806604 53.3751409,34.5651544 53.3751409,36.0771007 L53.077047,82.6227114 C53.077047,86.1603221 53.1689664,90.2855302 53.518604,92.089557 C53.8673826,93.8961611 54.4317852,95.3660134 55.1302013,96.2405369 C55.8286174,97.1133423 56.6361342,97.7791141 57.9668188,98.0540134 C59.2055839,98.3091544 65.990443,99.1802416 66.3426577,96.5875973 C66.7653154,93.4803758 66.7816376,90.1197315 70.3441611,77.5860403 C75.890255,58.0724832 83.1201074,48.5515168 86.5202685,45.170255 C87.1147383,44.5792215 87.793396,44.544 87.7607517,45.511302 C87.6155705,49.7894228 87.1052886,60.4804295 86.7616644,69.561557 C85.8407517,93.866094 90.2623356,98.3710067 96.5807248,98.3710067 C101.414658,98.3710067 108.228725,93.568 115.533315,81.4097181 C120.087195,73.8328054 124.508779,66.403651 127.685584,61.0491275 C129.899383,63.0988456 132.383785,65.3040537 134.86647,67.6604564 C140.635919,73.1361074 142.530148,78.3394362 141.273342,83.2755973 C140.312054,87.0494497 136.691973,90.9384161 130.24902,87.1585503 C128.371114,86.0555168 127.569611,85.2033289 125.681396,83.9602685 C124.666846,83.2927785 123.11796,83.0926174 122.189315,83.7927517 C119.777074,85.6113826 118.397423,87.9248322 117.609664,90.7889396 C116.843383,93.5757315 119.63447,95.0490201 122.527785,96.3376107 C125.01906,97.4466577 130.373584,98.4517584 133.788349,98.5660134 C147.093477,99.0110067 157.751839,92.1419597 165.171544,74.4229799 C166.499651,89.7262819 172.152268,98.3847517 181.973047,98.3847517 C188.538846,98.3847517 195.121826,89.898094 198.000537,81.5488859 C198.826953,84.9524832 200.050255,87.9119463 201.630067,90.4152483 C209.19753,102.405154 223.878013,99.8245369 231.252188,89.642953 C233.532134,86.4970738 233.879195,85.3665503 233.879195,85.3665503 C234.954738,94.9802953 242.696591,98.3392215 247.129342,98.3392215 C252.093852,98.3392215 257.219866,95.9922685 260.812456,87.9042148 C261.233396,88.7821745 261.692993,89.6206174 262.194685,90.4152483 C269.762148,102.405154 284.442631,99.8245369 291.816805,89.642953 C292.164725,89.1653154 292.466255,88.732349 292.729987,88.3431946 L292.94647,94.6581477 C292.94647,94.6581477 288.739651,98.517047 286.157315,100.884617 C274.777342,111.31447 266.132617,119.225557 265.496913,128.438121 C264.687678,140.184913 274.208644,144.550658 281.423034,145.122792 C289.070389,145.730148 295.631034,141.501852 299.65745,135.584644 C303.201074,130.376161 305.520537,119.166282 305.350443,108.094711 C305.282577,103.661101 305.170899,98.0239463 305.083275,91.9813154 C309.077906,87.3423893 313.578523,81.478443 317.722631,74.6162685 C322.238711,67.1372886 327.078658,57.0931544 329.557047,49.2765638 C329.557047,49.2765638 333.762148,49.3126443 338.249879,49.0188456 C339.685369,48.9252081 340.097718,49.2181477 339.832268,50.2704966 C339.511839,51.541906 334.16247,72.1748188 339.04451,85.9197852 C342.386255,95.3290738 349.919356,98.3564027 354.385611,98.3564027 C359.613852,98.3564027 364.615302,94.4081611 367.29557,88.5450738 C367.618577,89.1988188 367.956188,89.8310872 368.324725,90.4152483 C375.892188,102.405154 390.521128,99.8090738 397.946846,89.642953 C399.622872,87.3492617 400.573852,85.3665503 400.573852,85.3665503 C402.167409,95.3161879 409.904966,98.389906 414.336859,98.389906 C418.95345,98.389906 423.334658,96.497396 426.88945,88.0863356 C427.038067,91.789745 427.271732,94.8179329 427.641128,95.772349 C427.866201,96.3565101 429.177987,97.0892886 430.132403,97.4432215 C434.355544,99.0092886 438.662872,98.2687785 440.25643,97.9466309 C441.360322,97.7232752 442.221101,96.8375839 442.338792,94.5507651 C442.648054,88.5459329 442.458201,78.4571275 444.27855,70.9583893 C447.334228,58.3748725 450.184591,53.4936913 451.536752,51.0771544 C452.293584,49.7232752 453.14749,49.4999195 453.178416,50.9328322 C453.241987,53.8321611 453.386309,62.3463087 454.570094,73.785557 C455.439463,82.1983356 456.600913,87.1714362 457.493477,88.7452349 C460.040591,93.2458523 463.18647,93.4588993 465.748188,93.4588993 C467.377826,93.4588993 470.785718,93.0087517 470.480752,90.1446443 C470.332134,88.7486711 470.59243,80.1211275 473.605154,67.7240268 C475.572403,59.6282416 478.852295,52.3142013 480.035221,49.6390872 C480.471624,48.6528859 480.674362,49.4303356 480.66749,49.5815302 C480.418362,55.1568322 479.859114,73.3929664 482.13047,83.3666577 C485.209342,96.8779597 494.116081,98.389906 497.219866,98.389906 C503.845799,98.389906 509.264752,93.3497987 511.090255,80.0876242 C511.530094,76.8962148 510.878926,74.4315705 508.928,74.4315705 L508.928,74.4315705 Z"></path>
	</g>
</svg>

<svg preserveAspectRatio="xMidYMid" viewBox="0 0 512 146" xmlns="http://www.w3.org/2000/svg">
  <g fill="#343433">
    <path d="M27.127.902C16.68 5.278 5.197 17.625 1.57 33.135-3.024 52.78 16.09 61.09 17.659 58.369c1.845-3.201-3.425-4.283-4.51-14.477-1.402-13.166 4.719-27.877 12.423-34.332 1.43-1.2 1.363.47 1.363 3.557 0 5.521-.305 55.085-.305 65.429 0 13.996-.578 18.416-1.617 22.784-1.051 4.425-2.743 7.416-1.462 8.568 1.432 1.288 7.546-1.777 11.085-6.716 4.244-5.924 5.73-13.04 5.997-20.765.322-9.314.308-24.094.322-32.524.012-7.731.13-30.37-.136-43.98-.065-3.34-9.323-6.842-13.692-5.011"/>
    <path d="M398.07 66.405c-.337 7.277-1.948 12.964-3.947 16.976-3.87 7.767-11.9 10.178-15.31-.986-1.858-6.086-1.945-16.25-.61-24.743 1.36-8.651 5.158-15.185 11.445-14.596 6.202.583 9.105 8.574 8.422 23.35Zm-104.55 45.146c-.084 12.09-1.987 22.69-6.067 25.77-5.788 4.366-13.567 1.09-11.956-7.732 1.425-7.807 8.166-15.78 18.04-25.522 0 0 .02 2.222-.017 7.484Zm-1.58-45.217c-.354 6.628-2.072 13.285-3.947 17.047-3.87 7.767-11.958 10.195-15.31-.986-2.292-7.64-1.743-17.526-.61-23.756 1.472-8.083 5.04-15.582 11.445-15.582 6.228 0 9.3 6.833 8.422 23.277Zm-60.565-.1c-.38 7.018-1.749 12.885-3.946 17.147-3.976 7.714-11.842 10.16-15.31-.986-2.501-8.037-1.65-18.995-.61-24.915 1.544-8.785 5.41-15.013 11.445-14.423 6.199.606 9.212 8.573 8.421 23.177Zm277.553 8.198c-1.515 0-2.207 1.562-2.78 4.19-1.983 9.144-4.07 11.207-6.759 11.207-3.005 0-5.705-4.526-6.4-13.588-.545-7.126-.457-20.244.24-33.293.143-2.681-.597-5.334-7.788-7.946-3.094-1.124-7.592-2.779-9.832 2.627-6.327 15.274-8.803 27.4-9.386 32.324-.03.255-.343.308-.397-.288-.372-3.945-1.201-11.115-1.305-26.177-.02-2.939-.642-5.44-3.886-7.488-2.105-1.33-8.496-3.68-10.797-.883-1.994 2.286-4.304 8.44-6.703 15.736-1.95 5.93-3.308 9.94-3.308 9.94s.026-15.998.049-22.067c.01-2.289-1.56-3.052-2.034-3.19-2.13-.618-6.33-1.651-8.112-1.651-2.2 0-2.738 1.228-2.738 3.02 0 .235-.347 21.063-.347 35.627 0 .633 0 1.323.003 2.057-1.216 6.694-5.161 15.78-9.451 15.78-4.296 0-6.322-3.798-6.322-21.161 0-10.129.304-14.534.453-21.86.087-4.22.255-7.46.245-8.195-.032-2.255-3.93-3.392-5.745-3.812-1.823-.423-3.407-.588-4.644-.517-1.751.1-2.99 1.247-2.99 2.827 0 .848.01 2.458.01 2.458-2.255-3.544-5.882-6.01-8.295-6.725-6.5-1.93-13.282-.22-18.398 6.939-4.066 5.687-6.517 12.13-7.482 21.385-.705 6.767-.475 13.628.779 19.431-1.515 6.548-4.326 9.23-7.405 9.23-4.47 0-7.71-7.294-7.334-19.912.248-8.299 1.909-14.123 3.724-22.549.774-3.592.145-5.472-1.432-7.274-1.447-1.653-4.53-2.498-8.96-1.46-3.156.741-7.669 1.538-11.798 2.15 0 0 .25-.995.454-2.747 1.074-9.19-8.913-8.445-12.1-5.51-1.901 1.753-3.196 3.82-3.687 7.536-.78 5.898 4.03 8.68 4.03 8.68-1.577 7.224-5.446 16.66-9.44 23.483-2.139 3.655-3.775 6.364-5.888 9.243a1388.103 1388.103 0 0 1 .226-34.66c.087-4.22.256-7.374.247-8.11-.024-1.648-.987-2.272-2.99-3.06-1.772-.698-3.866-1.18-6.039-1.35-2.742-.212-4.394 1.241-4.35 2.961.008.325.008 2.319.008 2.319-2.255-3.544-5.882-6.01-8.295-6.725-6.5-1.93-13.282-.22-18.398 6.939-4.065 5.687-6.727 13.669-7.482 21.315-.702 7.125-.573 13.18.385 18.282-1.033 5.108-4.005 10.45-7.364 10.45-4.296 0-6.74-3.799-6.74-21.162 0-10.129.304-14.534.454-21.86.087-4.219.254-7.46.245-8.195-.032-2.255-3.931-3.391-5.746-3.812-1.898-.44-3.537-.6-4.796-.507-1.66.123-2.828 1.61-2.828 2.719v2.556c-2.255-3.544-5.882-6.01-8.295-6.725-6.5-1.93-13.244-.192-18.398 6.939-3.36 4.649-6.081 9.803-7.481 21.213-.405 3.297-.584 6.386-.56 9.271-1.34 8.196-7.26 17.642-12.101 17.642-2.833 0-5.532-5.496-5.532-17.207 0-15.6.966-37.812 1.13-39.952 0 0 6.117-.104 7.301-.118 3.052-.034 5.815.039 9.88-.17 2.038-.103 4.002-7.42 1.898-8.325-.954-.41-7.693-.768-10.365-.825-2.246-.05-8.5-.514-8.5-.514s.561-14.743.692-16.3c.11-1.299-1.57-1.967-2.532-2.372-2.342-.99-4.437-1.465-6.92-1.977-3.432-.708-4.988-.015-5.292 2.88-.458 4.395-.695 17.268-.695 17.268-2.518 0-11.12-.492-13.638-.492-2.34 0-4.866 10.064-1.63 10.188 3.722.144 10.209.27 14.509.398 0 0-.192 22.578-.192 29.55 0 .74.004 1.455.008 2.148-2.367 12.335-10.703 18.999-10.703 18.999 1.79-8.161-1.867-14.29-8.454-19.478-2.427-1.911-7.218-5.53-12.578-9.496 0 0 3.104-3.06 5.858-9.216 1.95-4.362 2.035-9.351-2.754-10.452-7.912-1.82-14.435 3.991-16.381 10.195-1.508 4.806-.704 8.371 2.25 12.075.215.271.45.548.69.826-1.785 3.442-4.239 8.077-6.317 11.671-5.768 9.98-10.125 17.872-13.418 17.872-2.632 0-2.597-8.014-2.597-15.517 0-6.468.478-16.193.86-26.26.126-3.33-1.54-5.227-4.33-6.945-1.696-1.044-5.315-3.096-7.411-3.096-3.138 0-12.19.427-20.742 25.167-1.078 3.118-3.196 8.8-3.196 8.8l.183-29.751c0-.698-.372-1.372-1.223-1.833-1.441-.783-5.29-2.383-8.713-2.383-1.63 0-2.445.758-2.445 2.27l-.298 46.546c0 3.537.092 7.663.442 9.467.348 1.806.913 3.276 1.611 4.15.699.873 1.506 1.54 2.837 1.814 1.239.255 8.023 1.126 8.376-1.466.422-3.108.439-6.468 4.001-19.002C75.89 58.072 83.12 48.552 86.52 45.17c.595-.59 1.273-.626 1.24.341-.144 4.278-.655 14.97-.998 24.05-.921 24.305 3.5 28.81 9.819 28.81 4.834 0 11.648-4.803 18.952-16.961a4280.74 4280.74 0 0 0 12.153-20.36c2.213 2.049 4.698 4.254 7.18 6.61 5.77 5.476 7.664 10.68 6.407 15.616-.96 3.773-4.581 7.662-11.024 3.883-1.878-1.103-2.68-1.956-4.568-3.199-1.014-.667-2.563-.867-3.492-.167-2.412 1.818-3.792 4.132-4.58 6.996-.766 2.787 2.025 4.26 4.919 5.549 2.491 1.109 7.846 2.114 11.26 2.228 13.305.445 23.964-6.424 31.384-24.143 1.328 15.303 6.98 23.962 16.801 23.962 6.566 0 13.149-8.487 16.028-16.836.826 3.403 2.05 6.363 3.63 8.866 7.567 11.99 22.247 9.41 29.621-.772 2.28-3.146 2.627-4.276 2.627-4.276 1.076 9.613 8.818 12.972 13.25 12.972 4.965 0 10.09-2.347 13.683-10.435.421.878.881 1.717 1.383 2.511 7.567 11.99 22.248 9.41 29.622-.772.348-.478.65-.91.913-1.3l.216 6.315-6.789 6.227c-11.38 10.43-20.024 18.34-20.66 27.553-.81 11.747 8.712 16.113 15.926 16.685 7.647.607 14.208-3.621 18.234-9.538 3.544-5.209 5.864-16.419 5.693-27.49-.067-4.434-.18-10.071-.267-16.114 3.995-4.639 8.496-10.503 12.64-17.365 4.516-7.479 9.356-17.523 11.834-25.34 0 0 4.205.037 8.693-.257 1.435-.094 1.848.2 1.582 1.251-.32 1.272-5.67 21.905-.787 35.65 3.341 9.41 10.874 12.436 15.34 12.436 5.229 0 10.23-3.948 12.91-9.81.324.653.661 1.285 1.03 1.87 7.567 11.99 22.196 9.393 29.622-.773 1.676-2.294 2.627-4.276 2.627-4.276 1.593 9.95 9.331 13.023 13.763 13.023 4.616 0 8.998-1.893 12.552-10.304.15 3.704.383 6.732.752 7.686.225.585 1.537 1.317 2.491 1.671 4.224 1.566 8.53.826 10.124.504 1.104-.224 1.965-1.11 2.083-3.396.31-6.005.12-16.094 1.94-23.593 3.055-12.583 5.906-17.464 7.258-19.88.757-1.355 1.61-1.578 1.641-.145.064 2.9.208 11.413 1.392 22.853.87 8.412 2.03 13.385 2.923 14.96 2.548 4.5 5.693 4.713 8.255 4.713 1.63 0 5.038-.45 4.733-3.314-.149-1.396.111-10.024 3.124-22.421 1.967-8.096 5.247-15.41 6.43-18.085.437-.986.64-.209.632-.057-.249 5.575-.808 23.811 1.463 33.785 3.08 13.511 11.986 15.023 15.09 15.023 6.626 0 12.045-5.04 13.87-18.302.44-3.192-.211-5.656-2.162-5.656Z"/>
  </g>
</svg>
